!! J.S. Bach "Partita" BWV 1013 for flauto traverso
!! Dolmetsch suggests a tempo of quarter note equals 100 beats per minute.
!! Fourth movement: Bourree Anglaise
**kern
*M2/4
8ee
=1
16a
16b
8cc
16b
16a
8g#
=2
8a
8ee
4ee
=3
16e
16f
16e
16ee
16e
16f
16e
16dd
=4
16e
16f
16e
16cc
16b
16g#
8ee
=5
16cc
16a
8ff
16dd
16b
8gg
=6
16ee
16cc
8gg
4gg
=7
16ee
16gg
16ee
16cc
16g
16cc
16ee
16gg
=8
16dd
16gg
16dd
16b
16g
16b
16dd
16ff
=9
16ee
16gg
16ee
16cc
16g
16cc
16ee
16gg
=10
16dd
16ff
16dd
16b
16g
16b
16dd
16gg
=11
16e
16f
8g
16g
16a
8b
=12
16cc
16b
8cc
4bb-
=13
16f
16cc
8ff
16aa
16gg
8aa
=14
16f#
16a
8dd
4ccc
=15
8bb
16aa
16gg
8ddd
8ffn
=16
16ee
16dd
8ee
8ccc
8ee
=17
16ff
16aa
16ff
16dd
16dd
16ff
16dd
16b
=18
16b
16dd
16b
16g
8gg
8ff
=19
8ee
16dd
16cc
8dd
8b
=20
4.cc
8gg
=21
16ee
16dd
8cc
16cc
16dd
8ee
=22
16dd
16cc
8dd
4bb
=23
16g#
16b
8dd
8ff
8ee
=24
16dd
16cc
16b
16cc
8a
8cc#
=25
16dd
16ee
8ff
16ee
16dd
8cc#
=26
16dd
16a
8aa
4aa
=27
16cc#
16dd
8ee
16dd
16cc#
8b
=28
16cc#
16a
8gg
4gg
=29
16ff
16aa
16ff
16dd
16a
16dd
16ff
16aa
=30
16ee
16aa
16ee
16cc#
16a
16cc#
16ee
16gg
=31
16ff
16aa
16ff
16dd
16a
16dd
16ff
16aa
=32
16ee
16aa
16ee
16cc#
16a
16cc#
16ee
16gg
=33
16ff
16gg
8aa
8a
16dd
16cc#
=34
8dd
8a
8.d
16ff
=35
16g
16a
8b
16b
16cc
8dd
=36
16dd
16ee
8ff
4ff
=37
16g#
16a
8b
16b
16cc
8dd
=38
16dd
16ee
8ff
8bb
8ee
=39
16ccc
16bb
16aa
16gg
16ff#
16ee
16dd#
16ee
=40
16g
16bb
16aa
16gg
16ff#
16ee
16dd#
16ee
=41
16a
16ccc
16bb
16aa
16gg
16ff#
16ee
16dd#
=42
16g
16bb
16aa
16gg
16ff#
16ee
16dd#
16ee
=43
16cc
16b
8cc
8aa
8ff#
=44
16dd#
16ff#
8b
8gg
8e
=45
16a
16gg
8ff#
16b
16ee
8dd#
=46
8ee
8b
8e
16ee
16ffn
=47
16gg
16ff
8gg
16a
16cc#
8ee
=48
16gg
16ee
8ff
8d
16dd
16ee
=49
16ff
16ee
8ff
16g
16b
8dd
=50
16ff
16dd
8ee
8cc
8aa
=51
8gg#
8ggn
8cc#
8gg
=52
8ff#
8ffn
8b
8ff
=53
8ee
16ff
16ee
16dd
16cc
16b
16a
=54
8g#
16f#
16g#
8e
8ee
=55
16a
16b
8cc
16b
16a
8g#
=56
8a
8ee
4ee
=57
16e
16f
16e
16ee
16e
16f
16e
16dd
=58
16e
16f
16e
16cc
16b
16g#
8ee
=59
16cc
16a
8ff#
16dd
16b
8gg#
=60
16ee
16cc
8aa
8.aa
16ee
=61
16dd
16cc
16b
16a
8e
16a
16g#
=62
16a
16cc
8ee
16ee
16dd#
8ee
=63
8aa
8ddn
8cc#
8gg
=64
8ff#
8ccn
8b
8ffn
=65
8ee
16ff
16ee
16dd
16cc
16b
16a
=66
16g#
16a
16b
16g#
16e
16f#
16g#
16a
=67
16b
16g#
16b
16dd
16dd
16b
16dd
16ff
=68
16ff
16dd
16ff
16gg#
16gg#
16bb
8ee
=69
8cc
16b
16a
16cc
16b
16a
16g#
=70
4.a;
==
*-
